[A]
T3@0V15,3
L5O4EBEB
L3O5E4E1DCDO4BG5
L3O5C4C1O4BABGE5
L3O4AGF+ED+5B5
L5O4EBEB
L3O5E4E1DCDO4BG5
L3O5C4C1O4BABGE5
L3O4BAGF+E8R5

[B]
T3@0V13,3
L1O3E3EEE3EEE3EE
L1O3C3CCC3CCO2G3GGG3GG
L1O2A3AAA3AAO3E3EEE3EE
L1O2A3AAA+3A+A+B3BBB3BB
L1O3E3EEE3EEE3EE
L1O3C3CCC3CCO2G3GGG3GG
L1O2A3AAA3AAO3E3EEE3EE
L1O2B3O3C3C+3D+3E3EEE3EEE3EEE3EE

[C]
T3@0V15,5
L5O3E7GB
L7O4ED
L7O4CO3B
L5O3AA+BF+
L5O3E7GB
L7O4ED
L7O4CO3B
L3O3BAGF+E8R5
