[A]
T3@0V15,3
L3O4EBABGBF+BEBABGBF+BEBABGBF+BEBABGBF+E
L3O4DAGAF+AEADAGAF+AEADAGAF+AEADAGAF+AED

[B]
T3@0V13,3
L1O3E3EEE3EEE3EEE3EEE3EEE3EEE3EEE3EEE3EEE3EEE3EEE3EEE3EEE3EEE3EEE3EE
L1O3D3DDD3DDD3DDD3DDD3DDD3DDD3DDD3DDD3DDD3DDD3DDD3DDD3DDD3DDD3DDD+3D+D+

[C]
T3@0V13,8
L9O4EEEE
L9O4DDDD7E1F+1G1B1O5D5
